img/svg/icon-font/writing .svg

<svg width="22" height="22" viewBox="0 0 22 22" fill="none" xmlns="http://www.w3.org/2000/svg">
<path d="M15.1447 9.45312C15.1447 8.97849 14.76 8.59375 14.2854 8.59375H5.43381C4.95918 8.59375 4.57444 8.97849 4.57444 9.45312C4.57444 9.92776 4.95918 10.3125 5.43381 10.3125H14.2854C14.76 10.3125 15.1447 9.92776 15.1447 9.45312Z" fill="#4C51CC"/>
<path d="M5.43382 12.0312C4.95918 12.0312 4.57444 12.416 4.57444 12.8906C4.57444 13.3653 4.95918 13.75 5.43382 13.75H10.8097C11.2843 13.75 11.6691 13.3653 11.6691 12.8906C11.6691 12.416 11.2843 12.0312 10.8097 12.0312H5.43382Z" fill="#4C51CC"/>
<path d="M7.45336 20.2812H4.57922C3.63151 20.2812 2.86047 19.5102 2.86047 18.5625V3.4375C2.86047 2.48978 3.63151 1.71875 4.57922 1.71875H15.1448C16.0925 1.71875 16.8635 2.48978 16.8635 3.4375V8.72266C16.8635 9.19729 17.2483 9.58203 17.7229 9.58203C18.1975 9.58203 18.5823 9.19729 18.5823 8.72266V3.4375C18.5823 1.54206 17.0402 0 15.1448 0H4.57922C2.68379 0 1.14172 1.54206 1.14172 3.4375V18.5625C1.14172 20.4579 2.68379 22 4.57922 22H7.45336C7.92799 22 8.31274 21.6153 8.31274 21.1406C8.31274 20.666 7.92799 20.2812 7.45336 20.2812Z" fill="#4C51CC"/>
<path d="M20.1044 12.4425C19.0992 11.4373 17.4637 11.4372 16.4591 12.4418L11.741 17.1494C11.6408 17.2494 11.5669 17.3726 11.5257 17.508L10.4982 20.8907C10.4071 21.1906 10.4865 21.5163 10.7054 21.7406C10.8693 21.9087 11.0921 21.9999 11.3206 21.9999C11.397 21.9999 11.4742 21.9897 11.5499 21.9687L15.0186 21.0079C15.1613 20.9683 15.2914 20.8926 15.3963 20.7879L20.1045 16.0885C21.1097 15.0833 21.1097 13.4478 20.1044 12.4425ZM14.342 19.4118L12.5969 19.8952L13.1076 18.2139L16.2911 15.0374L17.5067 16.253L14.342 19.4118ZM18.8898 14.8727L18.7233 15.0389L17.5079 13.8235L17.6738 13.6579C18.0089 13.3228 18.5541 13.3228 18.8892 13.6579C19.2242 13.993 19.2242 14.5381 18.8898 14.8727Z" fill="#4C51CC"/>
<path d="M14.2854 5.15625H5.43381C4.95918 5.15625 4.57444 5.54099 4.57444 6.01562C4.57444 6.49026 4.95918 6.875 5.43381 6.875H14.2854C14.76 6.875 15.1447 6.49026 15.1447 6.01562C15.1447 5.54099 14.76 5.15625 14.2854 5.15625Z" fill="#4C51CC"/>
</svg>

<svg width="22" height="22" fill="none" xmlns="http://www.w3.org/2000/svg"><path d="M15.145 9.453a.86.86 0 00-.86-.86H5.434a.86.86 0 100 1.72h8.851a.86.86 0 00.86-.86zm-9.711 2.578a.86.86 0 000 1.719h5.376a.86.86 0 100-1.719H5.434z" fill="#4C51CC"/><path d="M7.453 20.281H4.58a1.72 1.72 0 01-1.719-1.718V3.438a1.72 1.72 0 011.72-1.72h10.565a1.72 1.72 0 011.718 1.72v5.285a.86.86 0 001.72 0V3.437A3.441 3.441 0 0015.144 0H4.579a3.441 3.441 0 00-3.437 3.438v15.124A3.441 3.441 0 004.579 22h2.874a.86.86 0 100-1.719z" fill="#4C51CC"/><path d="M20.104 12.443a2.58 2.58 0 00-3.645-.001l-4.718 4.707a.86.86 0 00-.215.359l-1.028 3.383a.86.86 0 001.052 1.078l3.469-.961a.86.86 0 00.377-.22l4.709-4.7a2.581 2.581 0 000-3.646zm-5.762 6.969l-1.745.483.51-1.681 3.184-3.177 1.216 1.216-3.165 3.159zm4.548-4.54l-.167.167-1.215-1.216.166-.165a.86.86 0 011.216 1.215zm-4.605-9.716H5.434a.86.86 0 100 1.719h8.851a.86.86 0 000-1.719z" fill="#4C51CC"/></svg>
